svg/700/sharp/app_registration-fill.svg

<svg xmlns="http://www.w3.org/2000/svg" width="48" height="48" viewBox="0 -960 960 960"><path d="M214.673-137Q182-137 159.5-159.5T137-214.673q0-32.672 22.5-55Q182-292 214.673-292q32.672 0 55 22.327 22.327 22.328 22.327 55Q292-182 269.673-159.5q-22.328 22.5-55 22.5Zm0-266Q182-403 159.5-425.119q-22.5-22.12-22.5-54.5Q137-512 159.5-534.5t55.173-22.5q32.672 0 55 22.119Q292-512.761 292-480.381 292-448 269.673-425.5q-22.328 22.5-55 22.5Zm0-265Q182-668 159.5-690.327q-22.5-22.328-22.5-55Q137-778 159.5-800.5t55.173-22.5q32.672 0 55 22.5Q292-778 292-745.327q0 32.672-22.327 55-22.328 22.327-55 22.327Zm265.708 0Q448-668 425.5-690.327q-22.5-22.328-22.5-55Q403-778 425.119-800.5q22.12-22.5 54.5-22.5Q512-823 534.5-800.5t22.5 55.173q0 32.672-22.119 55Q512.761-668 480.381-668Zm264.946 0q-32.672 0-55-22.327-22.327-22.328-22.327-55Q668-778 690.327-800.5q22.328-22.5 55-22.5Q778-823 800.5-800.5t22.5 55.173q0 32.672-22.5 55Q778-668 745.327-668ZM480.292-403Q448-403 425.5-425.208t-22.5-54.5Q403-512 425.208-534.5t54.5-22.5Q512-557 534.5-534.792t22.5 54.5Q557-448 534.792-425.5t-54.5 22.5ZM516-137v-144l278-277 143 143-277 278H516Zm285-246 30-32-37-37-31 31 38 38Z"/></svg>

<svg xmlns="http://www.w3.org/2000/svg" width="48" height="48" viewBox="0 -960 960 960"><path d="M214.67-137q-32.67 0-55.17-22.5T137-214.67q0-32.68 22.5-55Q182-292 214.67-292q32.68 0 55 22.33 22.33 22.32 22.33 55 0 32.67-22.33 55.17-22.32 22.5-55 22.5Zm0-266q-32.67 0-55.17-22.12t-22.5-54.5q0-32.38 22.5-54.88t55.17-22.5q32.68 0 55 22.12Q292-512.76 292-480.38q0 32.38-22.33 54.88-22.32 22.5-55 22.5Zm0-265q-32.67 0-55.17-22.33-22.5-22.32-22.5-55 0-32.67 22.5-55.17t55.17-22.5q32.68 0 55 22.5Q292-778 292-745.33q0 32.68-22.33 55-22.32 22.33-55 22.33Zm265.71 0q-32.38 0-54.88-22.33-22.5-22.32-22.5-55 0-32.67 22.12-55.17t54.5-22.5q32.38 0 54.88 22.5t22.5 55.17q0 32.68-22.12 55Q512.76-668 480.38-668Zm264.95 0q-32.68 0-55-22.33-22.33-22.32-22.33-55 0-32.67 22.33-55.17 22.32-22.5 55-22.5 32.67 0 55.17 22.5t22.5 55.17q0 32.68-22.5 55Q778-668 745.33-668ZM480.29-403q-32.29 0-54.79-22.21t-22.5-54.5q0-32.29 22.21-54.79t54.5-22.5q32.29 0 54.79 22.21t22.5 54.5q0 32.29-22.21 54.79t-54.5 22.5ZM516-137v-144l278-277 143 143-277 278H516Zm285-246 30-32-37-37-31 31 38 38Z"/></svg>
